symbols/web/medication_liquid/materialsymbolsoutlined/medication_liquid_grad200fill1_20px.svg

<svg xmlns="http://www.w3.org/2000/svg" height="20" width="20"><path d="M1.417 3.583V1.292h11.291v2.291ZM5.5 14.958h3.125v-2.083h2.083V9.75H8.625V7.667H5.5V9.75H3.417v3.125H5.5Zm-2.583 3.209q-.938 0-1.615-.677-.677-.678-.677-1.615V6.75q0-.938.677-1.615t1.615-.677h8.291q.938 0 1.615.677T13.5 6.75v9.125q0 .937-.677 1.615-.677.677-1.615.677Zm13.125-6.875q-.75-.417-1.209-1.292-.458-.875-.458-2.021 0-1.541.823-2.594.823-1.052 1.99-1.052 1.166 0 1.989 1.052Q20 6.438 20 7.979q0 1.146-.458 2.021-.459.875-1.209 1.292v5.729q0 .458-.343.802-.344.344-.802.344-.459 0-.803-.344-.343-.344-.343-.802Z"/></svg>

<svg xmlns="http://www.w3.org/2000/svg" height="20" width="20"><path d="M1.417 3.583V1.292H12.708V3.583ZM5.5 14.958H8.625V12.875H10.708V9.75H8.625V7.667H5.5V9.75H3.417V12.875H5.5ZM2.917 18.167Q1.979 18.167 1.302 17.49Q0.625 16.812 0.625 15.875V6.75Q0.625 5.812 1.302 5.135Q1.979 4.458 2.917 4.458H11.208Q12.146 4.458 12.823 5.135Q13.5 5.812 13.5 6.75V15.875Q13.5 16.812 12.823 17.49Q12.146 18.167 11.208 18.167ZM16.042 11.292Q15.292 10.875 14.833 10Q14.375 9.125 14.375 7.979Q14.375 6.438 15.198 5.385Q16.021 4.333 17.188 4.333Q18.354 4.333 19.177 5.385Q20 6.438 20 7.979Q20 9.125 19.542 10Q19.083 10.875 18.333 11.292V17.021Q18.333 17.479 17.99 17.823Q17.646 18.167 17.188 18.167Q16.729 18.167 16.385 17.823Q16.042 17.479 16.042 17.021Z"/></svg>
